packages/katcn/src/icons/svg/rate-solid.svg

<svg width="24" height="24" viewBox="0 0 24 24" fill="none" xmlns="http://www.w3.org/2000/svg">
<path d="M21.828 9.44773C21.5549 8.53947 20.7354 7.81286 19.8249 7.72203L16.0006 7.17708L14.2706 3.54404C13.8154 2.54496 12.9959 2 11.9943 2C10.9927 2 10.1733 2.54496 9.718 3.45322L7.988 7.08625L4.16378 7.72203C3.25325 7.90369 2.43378 8.53947 2.16062 9.44773C1.79641 10.4468 2.06957 11.4459 2.79799 12.1725L5.62063 14.9881L4.98326 18.9845C4.80115 19.9835 5.25641 20.9826 6.07589 21.5276C6.53115 21.8001 6.98642 21.9817 7.53273 21.9817C7.988 21.9817 8.35221 21.8909 8.71642 21.7092L12.1764 19.8019L15.6364 21.7092C16.4559 22.1634 17.4575 22.0725 18.277 21.5276C19.0964 20.9826 19.5517 19.9835 19.3696 18.9845L18.7322 14.9881L21.5549 12.1725C21.9191 11.4459 22.1922 10.356 21.828 9.44773Z" fill="black"/>
</svg>

<svg xmlns="http://www.w3.org/2000/svg" fill="none" viewBox="0 0 24 24"><path fill="#000" d="M21.828 9.448c-.273-.909-1.093-1.635-2.003-1.726L16 7.177l-1.73-3.633C13.815 2.545 12.996 2 11.994 2s-1.82.545-2.276 1.453l-1.73 3.633-3.824.636c-.91.182-1.73.817-2.003 1.726-.365.999-.091 1.998.637 2.724l2.823 2.816-.638 3.997a2.53 2.53 0 0 0 1.093 2.543c.455.272.91.454 1.457.454.455 0 .82-.091 1.183-.273l3.46-1.907 3.46 1.907c.82.454 1.822.364 2.641-.181a2.53 2.53 0 0 0 1.093-2.543l-.638-3.997 2.823-2.815c.364-.727.637-1.817.273-2.725"/></svg>
